packages/core/src/svgs/tokens/mono/LING.svg

<svg width="24" height="24" viewBox="0 0 24 24" fill="none" xmlns="http://www.w3.org/2000/svg">
<path fill-rule="evenodd" clip-rule="evenodd" d="M6.0889 5.33325C4.87223 5.33325 4.04446 6.62215 4.04446 7.73326C4.04446 8.02215 4.1 8.28881 4.16667 8.49438C3.22223 10.8221 2 13.5278 2 16.0777C2 17.2444 2.63335 18.6665 3.98334 18.6665C5.87223 18.6665 7.70556 16.1222 8.68889 14.7776C9.76114 15 10.9111 15.35 12 15.3332C13.0944 15.35 14.2389 15 15.3111 14.7776C16.25 16.0555 18.1167 18.6665 20.0167 18.6665C21.3666 18.6665 22 17.2444 22 16.0777C22 13.5222 20.7779 10.8221 19.8334 8.49438C19.9 8.28326 19.9556 8.02215 19.9556 7.73326C19.9556 6.62215 19.1222 5.33325 17.9111 5.33325C17.1945 5.33325 16.7723 5.5277 16.2167 5.78881L16.0278 5.87215C14.7389 5.66659 13.389 5.33325 12 5.33325C10.6111 5.33325 9.26112 5.66659 7.97224 5.87215L7.78334 5.78881C7.22779 5.5277 6.80557 5.33325 6.0889 5.33325ZM12 6.99993C10.6111 6.99993 9.31668 7.12214 8.0389 7.39993C7.8889 7.43325 7.73334 7.4166 7.59446 7.35548L7.07779 7.13325C6.58334 6.90548 6.46668 6.84992 6.0889 6.84992C5.73334 6.84992 5.53334 7.46103 5.53334 7.73882C5.53292 7.86518 5.55943 7.99018 5.61112 8.10547C5.73334 8.31104 5.75001 8.56659 5.65556 8.78882C4.71112 11.0832 3.66668 13.5555 3.66668 16.0777C3.66668 16.3555 3.75 16.9999 4.16667 16.9999C5.51113 16.9777 7.13334 14.3333 7.77779 13.4221C7.94446 13.1722 8.25557 13.0555 8.55001 13.1277C9.53895 13.3666 11.1278 13.6499 12 13.6666C12.8723 13.6499 14.4611 13.3666 15.4501 13.1277C15.7445 13.0555 16.05 13.1722 16.2278 13.4221C17.0389 14.5888 18.1556 16.9666 19.8389 16.9999C20.25 16.9999 20.3334 16.3611 20.3334 16.0777C20.3334 13.5555 19.2889 11.0778 18.3444 8.78882C18.2501 8.56659 18.2667 8.31104 18.3889 8.10547C18.4445 7.98881 18.4723 7.86103 18.4723 7.73326C18.4723 7.46103 18.2667 6.84992 17.9167 6.84992C17.5333 6.84992 17.4167 6.90548 16.9167 7.1277L16.4111 7.35548C16.2667 7.4166 16.1112 7.43325 15.9666 7.39993C14.6833 7.12214 13.389 6.99993 12 6.99993Z" fill="white"/>
<path d="M8.66726 9.22206C8.66726 8.91524 8.41853 8.6665 8.11171 8.6665C7.80489 8.6665 7.55615 8.91524 7.55615 9.22206V11.4443C7.55615 11.7511 7.80489 11.9999 8.11171 11.9999C8.41853 11.9999 8.66726 11.7511 8.66726 11.4443V9.22206Z" fill="white"/>
<path d="M9.22162 10.8891C9.52849 10.8891 9.77712 10.6405 9.77712 10.3337C9.77712 10.0268 9.52849 9.77808 9.22162 9.77808H6.9994C6.69257 9.77808 6.44385 10.0268 6.44385 10.3337C6.44385 10.6405 6.69257 10.8891 6.9994 10.8891H9.22162Z" fill="white"/>
<path d="M15.611 11.4443C16.3782 11.4443 17 10.8224 17 10.0554C17 9.28834 16.3782 8.6665 15.611 8.6665C14.844 8.6665 14.2222 9.28834 14.2222 10.0554C14.2222 10.8224 14.844 11.4443 15.611 11.4443Z" fill="white"/>
</svg>

<svg xmlns="http://www.w3.org/2000/svg" width="24" height="24" fill="none" viewBox="0 0 24 24">
    <path fill="#fff" fill-rule="evenodd" d="M6.089 5.333c-1.217 0-2.045 1.29-2.045 2.4 0 .29.056.556.123.761C3.222 10.822 2 13.528 2 16.078c0 1.166.633 2.589 1.983 2.589 1.89 0 3.723-2.545 4.706-3.89 1.072.223 2.222.573 3.311.556 1.094.017 2.239-.333 3.311-.555.939 1.277 2.806 3.888 4.706 3.888 1.35 0 1.983-1.422 1.983-2.588 0-2.556-1.222-5.256-2.167-7.584a2.5 2.5 0 0 0 .123-.76c0-1.112-.834-2.4-2.045-2.4-.716 0-1.139.194-1.694.455l-.19.083C14.74 5.667 13.39 5.333 12 5.333s-2.739.334-4.028.54l-.189-.084c-.555-.261-.977-.456-1.694-.456M12 7c-1.389 0-2.683.122-3.961.4a.7.7 0 0 1-.445-.045l-.516-.222c-.495-.228-.611-.283-.99-.283-.355 0-.555.611-.555.889 0 .126.026.251.078.366a.76.76 0 0 1 .045.684c-.945 2.294-1.99 4.767-1.99 7.289 0 .277.084.922.5.922 1.345-.022 2.967-2.667 3.612-3.578a.72.72 0 0 1 .772-.294c.989.239 2.578.522 3.45.539.872-.017 2.461-.3 3.45-.54.295-.072.6.045.778.295.81 1.167 1.928 3.545 3.61 3.578.412 0 .495-.639.495-.922 0-2.522-1.044-5-1.989-7.29a.76.76 0 0 1 .045-.683.9.9 0 0 0 .083-.372c0-.272-.205-.883-.555-.883-.384 0-.5.055-1 .278l-.506.227a.73.73 0 0 1-.444.045C14.683 7.122 13.389 7 12 7" clip-rule="evenodd"/>
    <path fill="#fff" d="M8.667 9.222a.556.556 0 0 0-1.11 0v2.222a.556.556 0 0 0 1.11 0z"/>
    <path fill="#fff" d="M9.222 10.89a.555.555 0 1 0 0-1.112H6.999a.556.556 0 0 0 0 1.111zm6.389.554a1.389 1.389 0 1 0 0-2.778 1.389 1.389 0 0 0 0 2.778"/>
</svg>
